X:41
T: ES HEULT DER STURM ES BRAUST DAS MEER
N: B0050
O: Europa, Mitteleuropa, Deutschland
R: Kriegs -, Sieges -, Soldaten - Lied
M: 6/8
L: 1/8
K: C
A, | A,2A,A,2C | C2CC2
C | D2DC2C | B,2B,B,2
C | D2DCCC | C3B,2
C, | C,E,F,G,A,B, | CCCC2
E | E2EE2E | DDDD2
F | E2CCDB, | C3C,2
C, | C,E,F,G,A,B, | CCCC2
E | E2EE2E | DDDD2
F | E2CCDB, | C3C,2

